!!! OTL: Berkowitz571
!!! Chapter: 1
!!! Section: V
!!! Page: 144
!!! Mode: 
!!! Encoder: CD
**kern
*staff1
=1-
*clefF4
*k[]
*C:
*M3/4
4BB/
4.F#\
8E\
=2
2A\
4D\
=3
2C/
4A\
=4
4F#\
4C#/
4r
=5
4D\
4.A\
8A-\
=6
2G-\
4D-\
=7
4E-\
4A-\
4G\
=8
!!linebreak:original
2E\
4r
=9
2B\
4B\
=10
2E\
4D\
=11
4C/
4D-\
8Dn\
8r
=12
4E-\
4F\
4G\
=13
4G#\
4.c#\
8B\
=14
4F#\
4.B\
8A\
=15
!!linebreak:original
4G\
4D\
4C#/
=16
2F#\
4r
==
*-
